icons/svg/landuse/village_green.svg

<?xml version="1.0" encoding="UTF-8" standalone="no"?>
<!-- Created with Inkscape (http://www.inkscape.org/) -->

<svg
   xmlns:dc="http://purl.org/dc/elements/1.1/"
   xmlns:cc="http://creativecommons.org/ns#"
   xmlns:rdf="http://www.w3.org/1999/02/22-rdf-syntax-ns#"
   xmlns:svg="http://www.w3.org/2000/svg"
   xmlns="http://www.w3.org/2000/svg"
   xmlns:sodipodi="http://sodipodi.sourceforge.net/DTD/sodipodi-0.dtd"
   xmlns:inkscape="http://www.inkscape.org/namespaces/inkscape"
   version="1.0"
   width="580"
   height="580"
   id="svg2"
   sodipodi:version="0.32"
   inkscape:version="0.91 r"
   sodipodi:docname="village_green.svg"
   inkscape:output_extension="org.inkscape.output.svg.inkscape">
  <metadata
     id="metadata2975">
    <rdf:RDF>
      <cc:Work
         rdf:about="">
        <dc:format>image/svg+xml</dc:format>
        <dc:type
           rdf:resource="http://purl.org/dc/dcmitype/StillImage" />
        <cc:license
           rdf:resource="http://web.resource.org/cc/PublicDomain" />
        <dc:language>en</dc:language>
        <dc:title></dc:title>
      </cc:Work>
    </rdf:RDF>
  </metadata>
  <sodipodi:namedview
     inkscape:window-height="995"
     inkscape:window-width="1280"
     inkscape:pageshadow="2"
     inkscape:pageopacity="0.0"
     guidetolerance="10.0"
     gridtolerance="10.0"
     objecttolerance="10.0"
     borderopacity="1.0"
     bordercolor="#666666"
     pagecolor="#ffffff"
     id="base"
     inkscape:zoom="0.65172414"
     inkscape:cx="410.47598"
     inkscape:cy="468.58707"
     inkscape:window-x="0"
     inkscape:window-y="0"
     inkscape:current-layer="svg2"
     showgrid="false"
     inkscape:window-maximized="1" />
  <defs
     id="defs4">
    <inkscape:perspective
       sodipodi:type="inkscape:persp3d"
       inkscape:vp_x="0 : 290 : 1"
       inkscape:vp_y="0 : 1000 : 0"
       inkscape:vp_z="580 : 290 : 1"
       inkscape:persp3d-origin="290 : 193.33333 : 1"
       id="perspective2441" />
    <inkscape:perspective
       id="perspective3452"
       inkscape:persp3d-origin="30 : 20 : 1"
       inkscape:vp_z="60 : 30 : 1"
       inkscape:vp_y="0 : 1000 : 0"
       inkscape:vp_x="0 : 30 : 1"
       sodipodi:type="inkscape:persp3d" />
    <symbol
       viewBox="244.5 110 489 219.9"
       id="symbol-university">
      <path
         id="path4460"
         d="M79,43l57,119c0,0,21-96,104-96s124,106,124,106l43-133l82-17L0,17L79,43z" />
      <path
         id="path4462"
         d="M94,176l-21,39"
         stroke-width="20"
         stroke="#000000"
         fill="none" />
      <path
         id="path4464"
         d="M300,19c0,10.5-22.6,19-50.5,19S199,29.5,199,19s22.6-19,50.5-19S300,8.5,300,19z" />
      <path
         id="path4466"
         d="M112,216l-16-38L64,88c0,0-9-8-4-35s16-24,16-24"
         stroke-width="20"
         stroke="#000000"
         ill="none" />
    </symbol>
    <inkscape:perspective
       id="perspective4471"
       inkscape:persp3d-origin="372.04724 : 350.78739 : 1"
       inkscape:vp_z="744.09448 : 526.18109 : 1"
       inkscape:vp_y="0 : 1000 : 0"
       inkscape:vp_x="0 : 526.18109 : 1"
       sodipodi:type="inkscape:persp3d" />
    <inkscape:perspective
       id="perspective4668"
       inkscape:persp3d-origin="6 : 4 : 1"
       inkscape:vp_z="12 : 6 : 1"
       inkscape:vp_y="0 : 1000 : 0"
       inkscape:vp_x="0 : 6 : 1"
       sodipodi:type="inkscape:persp3d" />
  </defs>
  <g
     id="g1327">
    <path
       d="M 66.275,1.768 C 24.94,1.768 1.704,23.139 1.704,66.804 L 1.704,516.927 C 1.704,557.771 22.599,579.156 63.896,579.156 L 515.92,579.156 C 557.227,579.156 578.149,558.841 578.149,516.927 L 578.149,66.804 C 578.149,24.203 557.227,1.768 514.628,1.768 C 514.624,1.768 66.133,1.625 66.275,1.768 z "
       style="fill:#111;stroke:#eee;stroke-width:3.40799999"
       id="path1329" />
  </g>
  <path
     style="fill:#ffffff;fill-opacity:1;fill-rule:evenodd;stroke:#ffffff;stroke-width:11.76621532;stroke-linecap:round;stroke-linejoin:round;stroke-miterlimit:4;stroke-dasharray:none;stroke-opacity:1"
     d="m 264.6618,98.073654 23.0347,0 0,391.046216 -22.79415,0 -0.24055,-391.046216 z"
     id="path2459"
     sodipodi:nodetypes="ccccc"
     inkscape:connector-curvature="0" />
  <path
     style="fill:#ffffff;fill-opacity:1;stroke:none"
     d="m 134.0893,159.17167 c 0,0 -25.21704,50.40735 -45.849924,78.41193 0,2.80046 8.022916,14.0024 21.778154,11.20194 0,1.40024 1.14733,4.20159 2.2936,5.60182 -11.46273,21.00345 -26.364154,42.00688 -44.704503,65.8108 0,2.80044 8.023845,26.6029 29.803005,22.40221 -6.87764,12.60206 -32.096249,54.61024 -49.290326,68.61253 0,2.80047 16.047844,30.80502 38.97327,18.20296 5.390086,17.55801 19.229394,27.37012 34.343544,22.03356 -1.26263,37.8331 -21.3525,30.06223 -19.107,43.77723 l 55.49827,0 c -9.17018,-12.60207 -11.12797,-4.20085 -12.27424,-40.60684 l 0,-3.66807 c 14.36022,4.54413 28.97983,-6.92531 34.38745,-20.13669 20.6329,9.80159 35.53414,-4.19961 41.2655,-19.60215 -8.02389,-7.00114 -28.65618,-30.80598 -43.55771,-53.20964 0,0 -18.3409,25.20438 -40.12007,4.20093 -13.75525,4.20068 -22.92538,-1.40008 -29.80301,-7.00101 9.17017,5.60093 19.48721,4.20042 25.21856,-4.20094 12.60899,11.20183 26.36356,8.40152 34.38746,-7.001 24.07171,4.20068 30.95033,-21.00366 32.09661,-22.40389 -17.19408,-16.80275 -40.12007,-56.00972 -40.12007,-56.00972 -4.58511,11.20184 -17.19447,9.80223 -21.77955,1.40086 -8.0239,2.80046 -14.90086,8.1e-4 -19.48595,-5.60012 5.73137,4.20069 12.60811,2.79916 16.04693,-2.80175 9.17017,9.8016 24.07176,2.80099 24.07176,-9.80108 12.60901,7.00115 21.77954,-8.40148 21.77954,-11.20194 -19.48663,-28.00458 -45.8513,-78.41193 -45.8513,-78.41193 z"
     id="path3"
     inkscape:connector-curvature="0"
     sodipodi:nodetypes="cccccccccccccccccccccccccccc" />
  <path
     inkscape:connector-curvature="0"
     style="fill:#ffffff;fill-opacity:1"
     d="m 450.21607,495.22792 -27.93828,0 c 0,-118.02195 -66.08378,-139.13928 -58.05586,-139.13928 8.02048,0 85.99414,31.90249 85.99414,139.13928 z"
     id="path3-1" />
  <path
     inkscape:connector-curvature="0"
     style="fill:#ffffff;fill-opacity:1"
     d="m 413.15283,495.22792 -28.5906,0 c 0,-67.84941 -51.55498,-90.99974 -43.20092,-90.99974 8.35406,0 71.79152,31.92945 71.79152,90.99974 z"
     id="path5" />
  <path
     inkscape:connector-curvature="0"
     style="fill:#ffffff;fill-opacity:1"
     d="m 466.45719,495.22792 28.58318,0 c 0,-67.84941 44.14233,-90.99974 35.78827,-90.99974 -8.35405,0 -64.37145,31.92945 -64.37145,90.99974 z"
     id="path7" />
  <g
     transform="matrix(7.41265,0,0,5.3925772,339.50815,355.18808)"
     id="g9"
     style="fill:#ffffff;fill-opacity:1">
    <path
       style="fill:#ffffff;fill-opacity:1"
       inkscape:connector-curvature="0"
       d="m 22.106,4.415 c -0.657,-0.027 -4.702,1.312 -7.192,8.044 0.448,1.487 0.834,3.143 1.123,4.972 C 17.604,6.427 22.938,4.449 22.106,4.415 Z"
       id="path11" />
  </g>
  <path
     inkscape:connector-curvature="0"
     d="m 436.84109,96.030489 c -4.50697,2.43932 -20.82084,10.392381 -41.58395,10.392381 -17.23764,0 -29.25383,-5.12402 -41.97367,-10.551151 -12.79202,-5.45961 -26.02065,-11.09964 -44.62951,-11.09964 -36.18569,0 -44.92179,7.37931 -45.79864,8.22008 l -1.11141,1.0645 0,98.969381 0.0108,5.87459 5.2431,-2.66305 c 0.13351,-0.0686 13.74825,-6.82 41.65612,-6.82 12.75593,0 22.40857,2.80017 33.5876,6.04418 13.55701,3.93322 28.92546,8.38968 53.01558,8.38968 24.94171,0 44.27587,-10.83622 45.08777,-11.29811 l 1.82228,-1.03563 0,-98.366771 -5.3261,2.87956 z"
     id="path3-0"
     style="fill:#ffffff;fill-opacity:1" />
</svg>

<svg width="580" height="580" viewBox="0 0 580 580" fill="none" xmlns="http://www.w3.org/2000/svg">
<g clip-path="url(#clip0)">
<path d="M66.2751 1.7679C24.9401 1.7679 1.7041 23.1389 1.7041 66.8039V516.927C1.7041 557.771 22.5991 579.156 63.8961 579.156H515.92C557.227 579.156 578.149 558.841 578.149 516.927V66.8039C578.149 24.2029 557.227 1.7679 514.628 1.7679C514.624 1.7679 66.1331 1.6249 66.2751 1.7679Z" fill="#111111" stroke="#EEEEEE" stroke-width="3.408"/>
<path fill-rule="evenodd" clip-rule="evenodd" d="M264.662 98.0737H287.696V489.12H264.902L264.662 98.0737V98.0737Z" fill="white" stroke="white" stroke-width="11.7662" stroke-linecap="round" stroke-linejoin="round"/>
<path d="M134.089 159.172C134.089 159.172 108.872 209.579 88.2392 237.584C88.2392 240.384 96.2621 251.586 110.017 248.785C110.017 250.186 111.165 252.987 112.311 254.387C100.848 275.391 85.9468 296.394 67.6065 320.198C67.6065 322.999 75.6303 346.801 97.4095 342.6C90.5318 355.202 65.3132 397.211 48.1191 411.213C48.1191 414.013 64.167 442.018 87.0924 429.416C92.4825 446.974 106.322 456.786 121.436 451.449C120.173 489.283 100.083 481.512 102.329 495.227H157.827C148.657 482.625 146.699 491.026 145.553 454.62V450.952C159.913 455.496 174.533 444.026 179.94 430.815C200.573 440.617 215.475 426.615 221.206 411.213C213.182 404.212 192.55 380.407 177.648 358.003C177.648 358.003 159.307 383.208 137.528 362.204C123.773 366.405 114.603 360.804 107.725 355.203C116.895 360.804 127.212 359.404 132.944 351.002C145.553 362.204 159.307 359.404 167.331 344.001C191.403 348.202 198.281 322.998 199.428 321.597C182.234 304.795 159.308 265.588 159.308 265.588C154.723 276.789 142.113 275.39 137.528 266.988C129.504 269.789 122.627 266.989 118.042 261.388C123.774 265.589 130.65 264.187 134.089 258.587C143.259 268.388 158.161 261.388 158.161 248.785C170.77 255.787 179.94 240.384 179.94 237.584C160.454 209.579 134.089 159.172 134.089 159.172V159.172Z" fill="white"/>
<path d="M450.216 495.228H422.278C422.278 377.206 356.194 356.089 364.222 356.089C372.242 356.089 450.216 387.991 450.216 495.228V495.228Z" fill="white"/>
<path d="M413.153 495.228H384.562C384.562 427.379 333.007 404.228 341.362 404.228C349.716 404.228 413.153 436.158 413.153 495.228V495.228Z" fill="white"/>
<path d="M466.457 495.228H495.04C495.04 427.379 539.183 404.228 530.828 404.228C522.474 404.228 466.457 436.158 466.457 495.228V495.228Z" fill="white"/>
<path d="M503.372 378.996C498.502 378.851 468.518 386.071 450.061 422.374C453.381 430.393 456.243 439.323 458.385 449.186C470.001 389.846 509.54 379.18 503.372 378.996Z" fill="white"/>
<path d="M436.841 96.0304C432.334 98.4697 416.02 106.423 395.257 106.423C378.02 106.423 366.004 101.299 353.284 95.8716C340.492 90.412 327.263 84.772 308.654 84.772C272.469 84.772 263.732 92.1513 262.856 92.9921L261.744 94.0565V193.026L261.755 198.901L266.998 196.237C267.132 196.169 280.746 189.417 308.654 189.417C321.41 189.417 331.063 192.218 342.242 195.462C355.799 199.395 371.167 203.851 395.257 203.851C420.199 203.851 439.533 193.015 440.345 192.553L442.167 191.518V93.1508L436.841 96.0304H436.841Z" fill="white"/>
</g>
<defs>
<clipPath id="clip0">
<path d="M0 0H580V580H0V0Z" fill="white"/>
</clipPath>
</defs>
</svg>
